reddit.svg

<svg xmlns="http://www.w3.org/2000/svg" viewBox="0 0 8 8"><g fill="none"><circle cx="4" cy="4" r="4" fill="#FF4500"/><path fill="#FFF" d="M6.66825766,4 C6.66825766,3.67541767 6.40572784,3.41766112 6.08591878,3.41766112 C5.92840089,3.41766112 5.7852028,3.47971362 5.68019087,3.57995228 C5.27923623,3.29355611 4.73031024,3.1073986 4.11933174,3.08353225 L4.38663483,1.83293564 L5.25536988,2.01909315 C5.26491642,2.23866355 5.44630066,2.41527452 5.67064433,2.41527452 C5.89976127,2.41527452 6.08591878,2.22911701 6.08591878,2.00000007 C6.08591878,1.77088313 5.89976127,1.58472562 5.67064433,1.58472562 C5.50835317,1.58472562 5.36515508,1.68019101 5.29832931,1.81861583 L4.3293556,1.61336524 C4.30071598,1.60859197 4.27207636,1.61336524 4.25298328,1.62768505 C4.22911694,1.64200486 4.21479713,1.66587121 4.21002386,1.69451082 L3.91408115,3.08830552 C3.29355611,3.1073986 2.73508358,3.29355611 2.32935567,3.58472562 C2.22434374,3.48448689 2.08114565,3.42243439 1.92362776,3.42243439 C1.59904543,3.42243439 1.34128888,3.68496421 1.34128888,4.00477327 C1.34128888,4.24343675 1.48448696,4.44391407 1.68496428,4.53460619 C1.67541774,4.59188542 1.67064447,4.64916465 1.67064447,4.71121716 C1.67064447,5.60859183 2.7159905,6.33890206 4.00477327,6.33890206 C5.29355604,6.33890206 6.33890206,5.6133651 6.33890206,4.71121716 C6.33890206,4.65393792 6.33412879,4.59188542 6.32458226,4.53460619 C6.52505958,4.44391407 6.66825766,4.23866348 6.66825766,4 L6.66825766,4 Z M2.6682578,4.41527445 C2.6682578,4.18615751 2.85441532,4 3.08353225,4 C3.31264919,4 3.4988067,4.18615751 3.4988067,4.41527445 C3.4988067,4.64439139 3.31264919,4.8305489 3.08353225,4.8305489 C2.85441532,4.83532217 2.6682578,4.64439139 2.6682578,4.41527445 L2.6682578,4.41527445 Z M4.99284006,5.51789971 C4.70644389,5.80429588 4.16229116,5.82338896 4.00477327,5.82338896 C3.84248211,5.82338896 3.29832938,5.79952261 3.01670648,5.51789971 C2.97374705,5.47494028 2.97374705,5.40811451 3.01670648,5.36515508 C3.0596659,5.32219566 3.12649168,5.32219566 3.1694511,5.36515508 C3.35083535,5.54653932 3.73269691,5.60859183 4.00477327,5.60859183 C4.27684963,5.60859183 4.66348446,5.54653932 4.84009544,5.36515508 C4.88305486,5.32219566 4.94988063,5.32219566 4.99284006,5.36515508 C5.03102622,5.40811451 5.03102622,5.47494028 4.99284006,5.51789971 Z M4.91646775,4.83532217 C4.68735081,4.83532217 4.5011933,4.64916465 4.5011933,4.42004772 C4.5011933,4.19093078 4.68735081,4.00477327 4.91646775,4.00477327 C5.14558468,4.00477327 5.3317422,4.19093078 5.3317422,4.42004772 C5.3317422,4.64439139 5.14558468,4.83532217 4.91646775,4.83532217 Z"/></g></svg>

<svg xmlns="http://www.w3.org/2000/svg" viewBox="0 0 8 8"><g fill="none"><circle cx="4" cy="4" r="4" fill="#FF4500"/><path fill="#FFF" d="M6.668 4a.582.582 0 0 0-.988-.42c-.4-.286-.95-.473-1.56-.496l.267-1.251.868.186a.415.415 0 1 0 .043-.2l-.969-.206a.102.102 0 0 0-.076.015.093.093 0 0 0-.043.067l-.296 1.393c-.62.02-1.179.206-1.585.497a.582.582 0 1 0-.644.95c-.01.057-.014.114-.014.176 0 .898 1.045 1.628 2.334 1.628 1.289 0 2.334-.726 2.334-1.628 0-.057-.005-.12-.014-.176.2-.091.343-.296.343-.535Zm-4 .415a.416.416 0 1 1 .831 0 .416.416 0 0 1-.83 0Zm2.325 1.103c-.287.286-.83.305-.988.305-.163 0-.707-.023-.988-.305a.107.107 0 0 1 0-.153.107.107 0 0 1 .152 0c.182.182.564.244.836.244s.658-.062.835-.244a.107.107 0 0 1 .153 0 .116.116 0 0 1 0 .153Zm-.077-.683a.416.416 0 1 1 .001-.83.416.416 0 0 1 0 .83Z"/></g></svg>
